resources/icons/20px/model.svg

<svg width="20" height="20" viewBox="0 0 20 20" fill="none" xmlns="http://www.w3.org/2000/svg">
<path fill-rule="evenodd" clip-rule="evenodd" d="M18.7457 17H1.25389C0.552053 17 -0.0252954 16.4223 0.00085477 15.7066C0.071266 13.7797 0.279483 10.4338 0.894823 7.51092C1.2199 5.9668 1.65409 4.56396 2.22777 3.55442C2.81538 2.52037 3.48782 2 4.24914 2C5.12945 2 5.79031 2.35738 6.32995 2.9201C6.87744 3.49101 7.29119 4.26486 7.65742 5.07108C7.75986 5.2966 7.86776 5.54802 7.9744 5.7965L7.977 5.80257C8.22192 6.37328 8.45922 6.92346 8.68312 7.32675C9.02121 7.93569 9.46818 8.5 10.1544 8.5C11.1996 8.5 11.8071 7.83349 12.3013 7.25505L12.3043 7.25154C12.3478 7.20063 12.3947 7.14581 12.4393 7.09533C12.7223 6.77493 13.005 6.4789 13.3635 6.26036C13.7138 6.0468 14.149 5.9 14.7475 5.9C15.3746 5.9 15.9857 6.25819 16.5794 6.9424C17.1659 7.61837 17.6929 8.56546 18.1549 9.63041C19.0079 11.5967 19.6132 13.9016 19.9688 15.4776C20.1461 16.2632 19.5438 17 18.7457 17Z" fill="#5F6B7C"/>
</svg>

<svg xmlns="http://www.w3.org/2000/svg" viewBox="0 0 20 20">
  <path d="M18.746 17H1.254A1.25 1.25 0 0 1 0 15.707c.07-1.927.278-5.273.894-8.196.325-1.544.76-2.947 1.333-3.957Q3.108 2.001 4.249 2c.88 0 1.541.357 2.081.92.547.571.961 1.345 1.327 2.151.103.226.21.477.317.726l.003.006c.245.57.482 1.12.706 1.524.338.609.785 1.173 1.471 1.173 1.046 0 1.653-.667 2.147-1.245l.003-.003.135-.157c.283-.32.566-.616.925-.835.35-.213.785-.36 1.383-.36.628 0 1.239.358 1.832 1.042.587.676 1.114 1.623 1.576 2.688.853 1.967 1.458 4.272 1.814 5.848A1.25 1.25 0 0 1 18.746 17"/>
</svg>
